X:1
T: Miss Oliphant (Rossie's) Strathspey
C:
R:Strathspey
Q: 128
K:G
M:4/4
L:1/16
|:D2|B,DG2 G3G dG3 BG3|FGA2 D3D F2A2 A3c|BAG2 G3G ed3 e3c|Bcd2 D3c B2G2 G2D2|
B,DG2 G3G dG3 BG3|FGA2 D3D F2A2 A3c|BAG2 G3G ed3 e3c|Bcd2 D3c B2G2 G2g2|
bag2 g3g bg3 bg3|fd3 a3d f2a2 a2ga|bag2 gg3 gfe2 e3e|dcB2 ABc2 B2G2 G2ga|
bag2 g3g bg3 bg3|fd3 a3d f2a2 a2ga|b1/2a1/2g3 g1/2f1/2e3 e1/2d1/2c3 c1/2B1/2A3|B1/2c1/2d3 A3c B2G2 G2:|
